X:2222
T:Giga ferrarese
O:england
C:R. Tesi: Il ballo della lepre 8c
C:Roberto Tombesi
M:6/8
L:1/8
K:C
g|ece dBd|cBc cde|fef agf|ege c2d|\
e^fg fga|g^fg Bcd|edc BcA|G3-G2:|
|:g|gag gag|^fef d2e|fef agf|ege c3|\
eGe eGe|fAf fAf|efe dcB|B2c c2:|


